openmetadata-ui/src/main/resources/ui/src/assets/svg/full-screen.svg

<svg width="16" height="16" viewBox="0 0 16 16" fill="none" xmlns="http://www.w3.org/2000/svg">
<g clip-path="url(#clip0_15647_20588)">
<path d="M6.3905 9.60969C6.24425 9.46344 6.0065 9.46344 5.86025 9.60969L3.5 11.9699V9.87519C3.5 9.66819 3.332 9.50019 3.125 9.50019C2.918 9.50019 2.75 9.66819 2.75 9.87519V12.8752C2.75 12.9239 2.75975 12.9727 2.77925 13.0184C2.81675 13.1099 2.89025 13.1834 2.9825 13.2217C3.0275 13.2397 3.07625 13.2502 3.125 13.2502H6.125C6.332 13.2502 6.5 13.0822 6.5 12.8752C6.5 12.6682 6.332 12.5002 6.125 12.5002H4.03025L6.38975 10.1407C6.53675 9.99369 6.53675 9.75669 6.3905 9.60969V9.60969Z" fill="#7147E8" stroke="#7147E8" stroke-width="0.3"/>
<path d="M13.0182 2.7785C12.9725 2.7605 12.9237 2.75 12.875 2.75H9.875C9.668 2.75 9.5 2.918 9.5 3.125C9.5 3.332 9.668 3.5 9.875 3.5H11.9697L9.61025 5.8595C9.464 6.00575 9.464 6.2435 9.61025 6.38975C9.683 6.46325 9.779 6.5 9.875 6.5C9.971 6.5 10.067 6.46325 10.1405 6.3905L12.5 4.03025V6.125C12.5 6.332 12.668 6.5 12.875 6.5C13.082 6.5 13.25 6.332 13.25 6.125V3.125C13.25 3.07625 13.2403 3.0275 13.2208 2.98175C13.1833 2.89025 13.1097 2.81675 13.0182 2.7785V2.7785Z" fill="#7147E8" stroke="#7147E8" stroke-width="0.3"/>
<path d="M13.625 0.5H2.375C1.3415 0.5 0.5 1.34075 0.5 2.375V13.625C0.5 14.6592 1.3415 15.5 2.375 15.5H13.625C14.6585 15.5 15.5 14.6592 15.5 13.625V2.375C15.5 1.34075 14.6585 0.5 13.625 0.5ZM14.75 13.625C14.75 14.2453 14.2453 14.75 13.625 14.75H2.375C1.75475 14.75 1.25 14.2453 1.25 13.625V2.375C1.25 1.75475 1.75475 1.25 2.375 1.25H13.625C14.2453 1.25 14.75 1.75475 14.75 2.375V13.625Z" fill="#7147E8" stroke="#7147E8" stroke-width="0.3"/>
</g>
<defs>
<clipPath id="clip0_15647_20588">
<rect width="16" height="16" fill="white"/>
</clipPath>
</defs>
</svg>

<svg xmlns="http://www.w3.org/2000/svg" width="16" height="16" fill="none"><g fill="#7147E8" stroke="#7147E8" stroke-width=".3" clip-path="url(#a)"><path d="M6.39 9.61a.375.375 0 0 0-.53 0L3.5 11.97V9.875a.375.375 0 0 0-.75 0v3a.375.375 0 0 0 .375.375h3a.375.375 0 0 0 0-.75H4.03l2.36-2.36a.375.375 0 0 0 0-.53ZM13.018 2.779a.393.393 0 0 0-.143-.029h-3a.375.375 0 0 0 0 .75h2.095L9.61 5.86a.375.375 0 0 0 .53.53l2.36-2.36v2.095a.375.375 0 0 0 .75 0v-3a.376.376 0 0 0-.232-.346Z"/><path d="M13.625.5H2.375C1.341.5.5 1.34.5 2.375v11.25c0 1.034.841 1.875 1.875 1.875h11.25c1.034 0 1.875-.84 1.875-1.875V2.375A1.877 1.877 0 0 0 13.625.5Zm1.125 13.125c0 .62-.505 1.125-1.125 1.125H2.375c-.62 0-1.125-.505-1.125-1.125V2.375c0-.62.505-1.125 1.125-1.125h11.25c.62 0 1.125.505 1.125 1.125v11.25Z"/></g><defs><clipPath id="a"><path fill="#fff" d="M0 0h16v16H0z"/></clipPath></defs></svg>
